X: 1
T: Grandpa Tommy's Ceili Band
M: 4/4
L: 1/8
R: reel
K: Gmaj
GB~B2 dB~B2|GABG ABGE|DEGA BABd|eaaf gedB|
GB~B2 dB~B2|GABG ABGE|DEGA Bdge|dBAF G4:|
|:~g3a gfed|Bd~d2 edBd|g2af gfed|eaab agef|
~g3a gfed|Bd~d2 edBd|~c3B cBAG|FDEF G4:|
